icons/add-sqaureB.svg

<svg width="24" height="24" viewBox="0 0 24 24" fill="none" xmlns="http://www.w3.org/2000/svg">
<path d="M15 21H9C5.7 21 3 18.3 3 15V9C3 5.7 5.7 3 9 3H15C18.3 3 21 5.7 21 9V15C21 18.3 18.3 21 15 21Z" fill="black"/>
<path fill-rule="evenodd" clip-rule="evenodd" d="M9 3.75C6.11421 3.75 3.75 6.11421 3.75 9V15C3.75 17.8858 6.11421 20.25 9 20.25H15C17.8858 20.25 20.25 17.8858 20.25 15V9C20.25 6.11421 17.8858 3.75 15 3.75H9ZM2.25 9C2.25 5.28579 5.28579 2.25 9 2.25H15C18.7142 2.25 21.75 5.28579 21.75 9V15C21.75 18.7142 18.7142 21.75 15 21.75H9C5.28579 21.75 2.25 18.7142 2.25 15V9Z" fill="black"/>
<path fill-rule="evenodd" clip-rule="evenodd" d="M8.25 12C8.25 11.5858 8.58579 11.25 9 11.25H15C15.4142 11.25 15.75 11.5858 15.75 12C15.75 12.4142 15.4142 12.75 15 12.75H9C8.58579 12.75 8.25 12.4142 8.25 12Z" fill="white"/>
<path fill-rule="evenodd" clip-rule="evenodd" d="M12 8.25C12.4142 8.25 12.75 8.58579 12.75 9V15C12.75 15.4142 12.4142 15.75 12 15.75C11.5858 15.75 11.25 15.4142 11.25 15V9C11.25 8.58579 11.5858 8.25 12 8.25Z" fill="white"/>
</svg>

<svg xmlns="http://www.w3.org/2000/svg" fill="none" viewBox="0 0 24 24">
  <path fill="#000" d="M15 21H9c-3.3 0-6-2.7-6-6V9c0-3.3 2.7-6 6-6h6c3.3 0 6 2.7 6 6v6c0 3.3-2.7 6-6 6Z"/>
  <path fill="#000" fill-rule="evenodd" d="M9 3.75C6.114 3.75 3.75 6.114 3.75 9v6c0 2.886 2.364 5.25 5.25 5.25h6c2.886 0 5.25-2.364 5.25-5.25V9c0-2.886-2.364-5.25-5.25-5.25H9ZM2.25 9c0-3.714 3.036-6.75 6.75-6.75h6c3.714 0 6.75 3.036 6.75 6.75v6c0 3.714-3.036 6.75-6.75 6.75H9c-3.714 0-6.75-3.036-6.75-6.75V9Z" clip-rule="evenodd"/>
  <path fill="#fff" fill-rule="evenodd" d="M8.25 12a.75.75 0 0 1 .75-.75h6a.75.75 0 0 1 0 1.5H9a.75.75 0 0 1-.75-.75Z" clip-rule="evenodd"/>
  <path fill="#fff" fill-rule="evenodd" d="M12 8.25a.75.75 0 0 1 .75.75v6a.75.75 0 0 1-1.5 0V9a.75.75 0 0 1 .75-.75Z" clip-rule="evenodd"/>
</svg>
